themes/default/assets/images/icons/mid/custom-built.svg

<?xml version="1.0" encoding="UTF-8"?>
<svg width="100px" height="75px" viewBox="0 0 100 75" version="1.1" xmlns="http://www.w3.org/2000/svg" xmlns:xlink="http://www.w3.org/1999/xlink">
    <!-- Generator: sketchtool 59 (101010) - https://sketch.com -->
    <title>553E8899-F489-466C-AC56-4C75FC04121A</title>
    <desc>Created with sketchtool.</desc>
    <g id="Page-1" stroke="none" stroke-width="1" fill="none" fill-rule="evenodd">
        <g id="Icons" transform="translate(-853.000000, -2716.000000)" fill-rule="nonzero">
            <g id="mid-icon-custombuilt" transform="translate(853.000000, 2716.000000)">
                <path d="M99.0196078,55.875 L99.0196078,55.875 L99.0196078,5.31907895 C99.1159329,3.87171966 98.6240965,2.44705163 97.6568627,1.37171053 C96.5842506,0.407237841 95.1701145,-0.0802902392 93.7352941,0.0197368421 L6.26470588,0.0493421053 C2.81372549,0.0592105263 0.980392157,1.90460526 0.980392157,5.38815789 L0.980392157,58.5592105 L0.980392157,58.5592105 L0.980392157,62.4473684 C0.886339639,63.894419 1.37787652,65.3182195 2.34313725,66.3947368 C3.41689314,67.3572408 4.83018103,67.8444765 6.26470588,67.7467105 L39.9705882,67.7467105 C39.7941176,71.8026316 38.0098039,72.4440789 36.5882353,72.6809211 L34.4313725,72.6809211 L34.4313725,74.0526316 L65.1078431,74.0526316 L65.1078431,72.6118421 L63.7254902,72.6118421 C62.2843137,72.4243421 60.5098039,71.7927632 60.3333333,67.7269737 L93.754902,67.7269737 C97.2058824,67.7269737 99.0392157,65.8717105 99.0294118,62.3881579 L99.0196078,55.875 Z M6.26470588,1.43092105 L93.6862745,1.37171053 L93.745098,1.37171053 C94.8163203,1.29813001 95.8731564,1.65272633 96.6862745,2.35855263 C97.3846896,3.17861763 97.7365757,4.24122097 97.6666667,5.31907895 L97.6666667,57.1184211 L2.40196078,57.2368421 L2.40196078,55.9539474 L2.40196078,55.9539474 L2.40196078,5.39802632 C2.35294118,2.65460526 3.55882353,1.43092105 6.26470588,1.43092105 Z M60.4803922,72.6315789 L39.8039216,72.7203947 C40.6078431,71.9111842 41.2254902,70.125 41.3333333,67.7861842 L58.9803922,67.7861842 C58.9491627,69.5217391 59.4752364,71.2210956 60.4803922,72.6315789 L60.4803922,72.6315789 Z M93.754902,66.3355263 L58.9803922,66.3355263 L41.3333333,66.3355263 L6.33333333,66.3355263 C5.26373506,66.3965718 4.2114476,66.0435016 3.39215686,65.3486842 C2.69000139,64.530756 2.33758972,63.4665655 2.41176471,62.3881579 L2.41176471,58.5592105 L97.6666667,58.4901316 L97.6666667,62.3684211 C97.6666667,65.0723684 96.4215686,66.3256579 93.754902,66.3355263 Z" id="Shape" fill="#A8C5DD"></path>
                <path d="M80.9705882,30.1480263 L53.6666667,30.0098684 L53.7647059,9.375 L81.0686275,9.51315789 L80.9705882,30.1480263 Z M55.0392157,28.6184211 L79.6078431,28.7467105 L79.6960784,10.8552632 L55.127451,10.7565789 L55.0392157,28.6184211 Z" id="Shape" fill="#032663"></path>
                <path d="M44.9901961,51.5032895 L17.6470588,51.3651316 L17.754902,31.0164474 L45.0980392,31.1546053 L44.9901961,51.5032895 Z M19.0686275,50.0032895 L43.627451,50.1315789 L43.7156863,32.5657895 L19.1568627,32.4375 L19.0686275,50.0032895 Z" id="Shape" fill="#032663"></path>
                <path d="M45.4607843,13.6085526 L20.4803922,13.4901316 C20.1067878,13.4901316 19.8039216,13.1852728 19.8039216,12.8092105 C19.8039216,12.4331482 20.1067878,12.1282895 20.4803922,12.1282895 L45.4509804,12.2565789 C45.8245848,12.2565789 46.127451,12.5614377 46.127451,12.9375 C46.127451,13.1154742 46.0572131,13.2861591 45.9321888,13.4120059 C45.8071646,13.5378526 45.6375953,13.6085526 45.4607843,13.6085526 L45.4607843,13.6085526 Z" id="Path" fill="#2969F6"></path>
                <path d="M38.7254902,18.3848684 L20.4607843,18.2960526 C20.0871799,18.2960526 19.7843137,17.9911939 19.7843137,17.6151316 C19.7843137,17.2390693 20.0871799,16.9342105 20.4607843,16.9342105 L38.7352941,17.0328947 C38.9945969,17.001301 39.2488023,17.1227942 39.388375,17.3450239 C39.5279477,17.5672535 39.5279477,17.8505096 39.388375,18.0727393 C39.2488023,18.2949689 38.9945969,18.4164621 38.7352941,18.3848684 L38.7254902,18.3848684 Z" id="Path" fill="#2969F6"></path>
                <path d="M42.5294118,23.2105263 L20.4313725,23.1019737 C20.2528497,23.1019931 20.0817776,23.0299401 19.9564677,22.9019508 C19.8311577,22.7739616 19.7620805,22.6007305 19.7646337,22.4210526 C19.7646337,22.0449903 20.0675721,21.7401316 20.4411765,21.7401316 L42.5392157,21.8585526 C42.7985185,21.8269589 43.0527238,21.9484521 43.1922965,22.1706818 C43.3318693,22.3929114 43.3318693,22.6761675 43.1922965,22.8983972 C43.0527238,23.1206268 42.7985185,23.24212 42.5392157,23.2105263 L42.5294118,23.2105263 Z" id="Path" fill="#2969F6"></path>
                <path d="M78.3235294,38.3289474 L54.3137255,38.2105263 C53.9401211,38.2105263 53.6372549,37.9056676 53.6372549,37.5296053 C53.6372549,37.349908 53.7088177,37.1777104 53.8359704,37.051576 C53.9631231,36.9254417 54.135222,36.85591 54.3137255,36.8585526 L78.3333333,36.9769737 C78.7069377,36.9769737 79.009804,37.2818324 79.009804,37.6578947 C79.009804,37.839342 78.9369588,38.0130874 78.8076611,38.1395173 C78.6783634,38.2659471 78.5037127,38.3342841 78.3235294,38.3289474 L78.3235294,38.3289474 Z" id="Path" fill="#2969F6"></path>
                <path d="M75.4313725,43.125 L54.2843137,43.0164474 C53.9446287,42.9750598 53.689133,42.6848761 53.689133,42.3404605 C53.689133,41.9960449 53.9446287,41.7058613 54.2843137,41.6644737 L75.4215686,41.7730263 C75.6808715,41.7414326 75.9350768,41.8629258 76.0746495,42.0851555 C76.2142222,42.3073851 76.2142222,42.5906412 76.0746495,42.8128709 C75.9350768,43.0351005 75.6808715,43.1565937 75.4215686,43.125 L75.4313725,43.125 Z" id="Path" fill="#2969F6"></path>
                <path d="M65.8235294,47.8815789 L54.2647059,47.8223684 C53.8911015,47.8223684 53.5882353,47.5175097 53.5882353,47.1414474 C53.5882353,46.9617501 53.6597981,46.7895525 53.7869508,46.6634181 C53.9141035,46.5372838 54.0862024,46.4677521 54.2647059,46.4703947 L65.8235294,46.5296053 C66.1971338,46.5296053 66.5,46.834464 66.5,47.2105263 C66.5,47.3902236 66.4284372,47.5624212 66.3012845,47.6885556 C66.1741318,47.8146899 66.0020329,47.8842216 65.8235294,47.8815789 L65.8235294,47.8815789 Z" id="Path" fill="#2969F6"></path>
            </g>
        </g>
    </g>
</svg>

<svg width="100" height="75" xmlns="http://www.w3.org/2000/svg"><g fill-rule="nonzero" fill="none"><path d="M99.02 55.875V5.319a5.37 5.37 0 00-1.363-3.947A5.312 5.312 0 0093.735.02L6.265.05C2.814.06.98 1.904.98 5.387v57.059a5.39 5.39 0 001.363 3.948 5.331 5.331 0 003.922 1.352H39.97c-.177 4.056-1.961 4.697-3.383 4.934h-2.157v1.372h30.677v-1.441h-1.383c-1.44-.188-3.215-.82-3.392-4.885h33.422c3.45 0 5.284-1.855 5.274-5.339l-.01-6.513zM6.265 1.431l87.421-.06h.06a4.061 4.061 0 012.94.988c.699.82 1.05 1.882.98 2.96v51.8l-95.264.118V5.398c-.05-2.743 1.157-3.967 3.863-3.967zm54.215 71.2l-20.676.09c.804-.81 1.421-2.596 1.53-4.935H58.98a8.1 8.1 0 001.5 4.846zm33.275-6.295H6.333a4.178 4.178 0 01-2.94-.987 4.113 4.113 0 01-.981-2.96v-3.83l95.255-.069v3.878c0 2.704-1.245 3.958-3.912 3.968z" fill="#A8C5DD"/><path d="M80.97 30.148l-27.303-.138.098-20.635 27.304.138-.098 20.635zm-25.93-1.53l24.568.129.088-17.892-24.569-.098-.088 17.861zM44.99 51.503l-27.343-.138.108-20.349 27.343.139-.108 20.348zm-25.921-1.5l24.558.129.089-17.566-24.56-.129-.087 17.566z" fill="#032663"/><path d="M45.46 13.609l-24.98-.119a.679.679 0 01-.676-.68c0-.377.303-.682.676-.682l24.971.129a.679.679 0 01.481 1.155.664.664 0 01-.471.197zM38.725 18.385l-18.264-.089a.679.679 0 01-.677-.68c0-.377.303-.682.677-.682l18.274.099c.26-.032.514.09.653.312.14.222.14.506 0 .728a.675.675 0 01-.653.312h-.01zM42.53 23.21l-22.099-.108a.665.665 0 01-.475-.2.674.674 0 01-.191-.48c0-.377.303-.682.676-.682l22.098.119c.26-.032.514.09.653.312.14.222.14.505 0 .727a.675.675 0 01-.653.313h-.01zM78.324 38.329l-24.01-.118a.679.679 0 01-.478-1.16.664.664 0 01.478-.192l24.02.118a.679.679 0 01.474 1.163.664.664 0 01-.484.189zM75.431 43.125l-21.147-.109a.68.68 0 01-.595-.676.68.68 0 01.595-.676l21.138.109c.259-.032.513.09.653.312s.14.506 0 .728a.675.675 0 01-.653.312h.01zM65.824 47.882l-11.56-.06a.679.679 0 01-.477-1.159.664.664 0 01.478-.193l11.559.06a.679.679 0 01.477 1.159.664.664 0 01-.477.193z" fill="#2969F6"/></g></svg>
